X:55
T:Paddy's Return
T:Frost Is All Over, The
R:jig
S:as played by Planxty
N:Kevin Burke recorded this on Portland as Paddy's Return. Planxty's recording includes a single time through (vocal) the 1st part of the other tune called Frost Is All Over. Cf., Matt Cranitch's fiddle book, Sean Keane's 50 Fiddle Solos, Allan's Irish Fiddler, and Roche's.
D:The Planxty Collection, Shanachie 79012
Z:Transcribed by Alan Ng agng@students.wisc.edu July 9, 1996 id:ng-jigs-11
E:11
M:6/8
K:D
B|AFD DFA|dfd B2 A|ABA F2 E|1GFG EFG:|2FDD D2:||\
e|fdd edd|fdd d2 e|fef def|gag efg|fed B2 A|AdF GFG|ABA F2 E|FDD D2:|**
